FINK
CUT[DIE ROSEN UND DIE NELKEN]
REG[Europa, Mitteleuropa, Deutschland]
KEY[F1133  08  G 4/4]
MEL[5_  5_4_3b_2_  3b__1_
    3b_  2_4_3b_2_  3b__0_
    1_  1_1_3_5_  5__4_
    2_  1_3b_3b_2_  1__0_
    3b_  3b_2_1_2_  4__3b_
    5_  5_4_3b_4_  5__0_
    5_  7b_3b_5_7b_  7b__6b_
    1_  1_3b_3b_.2  1__0_ //] >>
FCT[Liebes - Lied, Klage]
